polaris-icons/icons/new-icons/PersonalizedTextMajor.svg

<svg width="20" height="20" viewBox="0 0 20 20" fill="none" xmlns="http://www.w3.org/2000/svg">
<path d="M5.75 4C4.23122 4 3 5.23122 3 6.75V8.68934L2.21967 9.46967C1.92678 9.76256 1.92678 10.2374 2.21967 10.5303L3 11.3107V13.25C3 14.7688 4.23122 16 5.75 16H6C6.41421 16 6.75 15.6642 6.75 15.25C6.75 14.8358 6.41421 14.5 6 14.5H5.75C5.05964 14.5 4.5 13.9404 4.5 13.25V11C4.5 10.8011 4.42098 10.6103 4.28033 10.4697L3.81066 10L4.28033 9.53033C4.42098 9.38968 4.5 9.19891 4.5 9V6.75C4.5 6.05964 5.05964 5.5 5.75 5.5H6C6.41421 5.5 6.75 5.16421 6.75 4.75C6.75 4.33579 6.41421 4 6 4H5.75Z" fill="#4A4A4A"/>
<path d="M14.25 16C15.7688 16 17 14.7688 17 13.25V11.3107L17.7803 10.5303C18.0732 10.2374 18.0732 9.76256 17.7803 9.46967L17 8.68934V6.75C17 5.23122 15.7688 4 14.25 4H14C13.5858 4 13.25 4.33579 13.25 4.75C13.25 5.16421 13.5858 5.5 14 5.5H14.25C14.9404 5.5 15.5 6.05964 15.5 6.75V9C15.5 9.19891 15.579 9.38968 15.7197 9.53033L16.1893 10L15.7197 10.4697C15.579 10.6103 15.5 10.8011 15.5 11V13.25C15.5 13.9404 14.9404 14.5 14.25 14.5H14C13.5858 14.5 13.25 14.8358 13.25 15.25C13.25 15.6642 13.5858 16 14 16H14.25Z" fill="#4A4A4A"/>
<path fill-rule="evenodd" clip-rule="evenodd" d="M7.75 7.75C7.75 6.50736 8.75736 5.5 10 5.5C11.2426 5.5 12.25 6.50736 12.25 7.75C12.25 8.99264 11.2426 10 10 10C8.75736 10 7.75 8.99264 7.75 7.75ZM10 7C9.58579 7 9.25 7.33579 9.25 7.75C9.25 8.16421 9.58579 8.5 10 8.5C10.4142 8.5 10.75 8.16421 10.75 7.75C10.75 7.33579 10.4142 7 10 7Z" fill="#4A4A4A"/>
<path d="M8.16267 13.3681C8.518 12.6813 9.22672 12.25 10 12.25C10.7733 12.25 11.482 12.6813 11.8373 13.3681L12.0839 13.8446C12.2742 14.2125 12.7267 14.3565 13.0946 14.1661C13.4625 13.9758 13.6065 13.5233 13.4161 13.1554L13.1696 12.6788C12.5566 11.494 11.334 10.75 10 10.75C8.66601 10.75 7.44339 11.494 6.83041 12.6788L6.58387 13.1554C6.39354 13.5233 6.53748 13.9758 6.90537 14.1661C7.27327 14.3565 7.7258 14.2125 7.91613 13.8446L8.16267 13.3681Z" fill="#4A4A4A"/>
</svg>

<svg viewBox="0 0 20 20" xmlns="http://www.w3.org/2000/svg"><path d="M5.75 4a2.75 2.75 0 0 0-2.75 2.75v1.94l-.78.78a.75.75 0 0 0 0 1.06l.78.78v1.94a2.75 2.75 0 0 0 2.75 2.75h.25a.75.75 0 0 0 0-1.5h-.25c-.69 0-1.25-.56-1.25-1.25v-2.25a.75.75 0 0 0-.22-.53l-.47-.47.47-.47a.75.75 0 0 0 .22-.53v-2.25c0-.69.56-1.25 1.25-1.25h.25a.75.75 0 0 0 0-1.5h-.25Z" fill="#5C5F62"/><path d="M14.25 16a2.75 2.75 0 0 0 2.75-2.75v-1.94l.78-.78a.75.75 0 0 0 0-1.06l-.78-.78v-1.94a2.75 2.75 0 0 0-2.75-2.75h-.25a.75.75 0 0 0 0 1.5h.25c.69 0 1.25.56 1.25 1.25v2.25c0 .199.079.39.22.53l.47.47-.47.47a.75.75 0 0 0-.22.53v2.25c0 .69-.56 1.25-1.25 1.25h-.25a.75.75 0 0 0 0 1.5h.25Z" fill="#5C5F62"/><path fill-rule="evenodd" d="M7.75 7.75a2.25 2.25 0 1 1 4.5 0 2.25 2.25 0 0 1-4.5 0Zm2.25-.75a.75.75 0 1 0 0 1.5.75.75 0 0 0 0-1.5Z" fill="#5C5F62"/><path d="M8.163 13.368a2.069 2.069 0 0 1 3.674 0l.247.477a.75.75 0 1 0 1.332-.69l-.246-.476a3.569 3.569 0 0 0-6.34 0l-.246.476a.75.75 0 1 0 1.332.69l.247-.477Z" fill="#5C5F62"/></svg>
